svgs/sharp-regular/slot-machine.svg

<svg xmlns="http://www.w3.org/2000/svg" viewBox="0 0 640 512"><!--! Font Awesome Pro 6.6.0 by @fontawesome - https://fontawesome.com License - https://fontawesome.com/license (Commercial License) Copyright 2024 Fonticons, Inc. --><path d="M400 416l0 48-16 0-24 0-248 0 0-48 288 0zM112 512l248 0 24 0 16 0 48 0 144 0 24 0 0-24 0-270.4c14.3-8.3 24-23.8 24-41.6c0-26.5-21.5-48-48-48s-48 21.5-48 48c0 17.8 9.7 33.3 24 41.6L568 464l-120 0 0-48 16 0 48 0 0-48 0-224 0-48-48 0-16 0 0-48 0-48L400 0 112 0 64 0l0 48 0 48L48 96 0 96l0 48L0 368l0 48 48 0 16 0 0 48 0 48 48 0zm0-416l0-48 288 0 0 48L112 96zm352 48l0 224L48 368l0-224 416 0zM192 204.2l0-28.2-24 0-56 0-24 0 0 48 24 0 21.9 0L95.4 331.9 93.9 336l51 0 45.7-127.9 1.4-3.9zM312 176l-24 0-56 0-24 0 0 48 24 0 21.9 0L215.4 331.9l-1.5 4.1 51 0 45.7-127.9 1.4-3.9 0-28.2zm120 28.2l0-28.2-24 0-56 0-24 0 0 48 24 0 21.9 0L335.4 331.9l-1.5 4.1 51 0 45.7-127.9 1.4-3.9z"/></svg>

<svg xmlns="http://www.w3.org/2000/svg" viewBox="0 0 640 512"><!--! Font Awesome Pro 6.5.2 by @fontawesome - https://fontawesome.com License - https://fontawesome.com/license (Commercial License) Copyright 2024 Fonticons, Inc. --><path d="M400 416v48H384 360 112V416H400zM112 512H360h24 16 48H592h24V488 217.6c14.3-8.3 24-23.8 24-41.6c0-26.5-21.5-48-48-48s-48 21.5-48 48c0 17.8 9.7 33.3 24 41.6V464H448V416h16 48V368 144 96H464 448V48 0H400 112 64V48 96H48 0v48V368v48H48 64v48 48l48 0zm0-416l0-48 288 0V96H112zm352 48V368H48V144H464zM192 204.2V176H168 112 88v48h24 21.9L95.4 331.9 93.9 336h51l45.7-127.9 1.4-3.9zM312 176H288 232 208v48h24 21.9L215.4 331.9l-1.5 4.1h51l45.7-127.9 1.4-3.9V176zm120 28.2V176H408 352 328v48h24 21.9L335.4 331.9l-1.5 4.1h51l45.7-127.9 1.4-3.9z"/></svg>
